X:1
T:See! From the Morning Land
T:See! From the Morning Land
T:Horatio Richmond Palmer
T:Frances Jane (Fanny) Crosby, 1882
T:Public Domain Courtesy of the Cyber Hymnal™
T:Public Domain Courtesy of the Cyber Hymnal™
C:Horatio Richmond Palmer
Z:Public Domain
Z:Courtesy of the Cyber Hymnal™
%%score ( 1 2 ) ( 3 4 )
L:1/8
Q:1/4=110
M:4/4
K:Eb
V:1 treble 
V:2 treble 
V:3 bass 
V:4 bass 
V:1
 E4 G2 A2 | B3 [EB] [DB]4 | B4 c2 d2 | e3 [Ae] [Ae]4 | [Fe]4 [Fd]2 [Fc]2 | [FB]6 z2 | %6
w: 1.~See! from the|morn- ing land,|O- ver its|gold- en strand,|Love spreads her|wings;|
w: 2.~Oh, how her|wel- come voice|Bids them in|hope re- joice,|Calms ev- ery|fear;|
w: 3.~Hail, Thou A-|noint- ed One,|God’s own e-|ter- nal Son,|Glo- ry to|Thee;|
 B4 [FB]2 [AB]2 | [GB]3 [FB] [EB]4 | ([DF]3 [^C=E]) ([DF][_EG]) ([FA][GB]) | [Ac]3 [GB] d4 | %10
w: Where, from a|trou- bled sleep,|Sad * hearts * a- *|wake to weep,|
w: Sweet- ly we|hear her say,|Rolled * is * the *|stone a- way,|
w: Thou our ex-|alt- ed Lord,|Thou * the * In- *|car- nate Word,|
 e4 [Bd]2 [Ac]2 | [GB]3 [EG] (E2 F2) | [EG]2 !fermata![DB]4 [B,D]2 | [B,E]6 || %14
w: Where their lone|watch they keep, *|Tid- ings she|brings.|
w: Je- sus a-|rose to- day, *|Dry ev- ery|tear.|
w: By all in|Heav’n a- dored, *|Thy Name shall|be.|
[M:3/4]"^Refrain" [GB]>[Ee] | [Fd][Fd] [Fd][Fd] [Bd][Ad] | (eB) [GB]2 [EG]>[GB] | %17
w: |||
w: Hal- le-|lu- jah! Christ is ris’n in|glo- * ry! Hal- le-|
w: |||
 [FA][FA] [Dc][Dc] [EB][FA] | (GB) [EB] z [GB]>[Ee] | [Fd][Fd] [Fd][Fd] [Bd][Ad] | %20
w: |||
w: lu- jah! Hal- le- lu- jah!|A- * men! Christ the|Lord our God is ris’n in|
w: |||
 (eB) [GB]2 [GB]>[GB] | .[Ac].[Ac] z2 [Ad]2 | [Ge]6 |] %23
w: |||
w: glo- * ry! Hal- le-|lu- jah! A-|men.|
w: |||
V:2
 E4 G2 A2 | B3 x5 | B4 c2 d2 | e3 x5 | x8 | x8 | (D3 E) x4 | x8 | x8 | x4 (F2 A2) | (G2 c2) x4 | %11
 x4 E4 | x8 | x6 ||[M:3/4] x2 | x6 | G2 x4 | x6 | E2 x4 | x6 | G2 x4 | x6 | x6 |] %23
V:3
 E,4 G,2 A,2 | B,3 [B,,G,] [B,,F,]4 | B,4 C2 D2 | E3 C [E,B,]4 | [F,=A,]4 [F,B,]2 [F,E]2 | %5
 [B,,D]6 z2 | B,4 [D,B,]2 [F,B,]2 | [E,B,]3 [A,B,] [G,B,]4 | B,4 B,2 B,2 | %9
 [E,E]3 [G,E] ([B,D]2 [=B,F]2) | E4 [A,E]2 [A,E]2 | [E,E]3 [E,B,] [C,=A,]4 | %12
 [B,,B,]2 !fermata![B,,F,]4 [B,,B,]2 | [E,G,]6 ||[M:3/4] [E,B,]>[G,B,] | %15
 B,B, B,[A,B,] [G,B,][F,B,] | (B,E) [E,E]2 [E,B,]>[E,B,] | %17
 [B,,B,][B,,B,] [B,,B,][B,,B,] [C,B,][D,B,] | (B,G,) [E,G,] z [E,B,]>[G,B,] | %19
 B,B, B,[A,B,] [G,B,][F,B,] | (B,E) [E,E]2 [E,E]>[E,E] | .[A,E].[A,E] z2 B,2 | [E,B,]6 |] %23
V:4
 E,4 G,2 A,2 | B,3 x5 | B,4 C2 D2 | E3 C x4 | x8 | x8 | (B,,3 C,) x4 | x8 | B,4 B,2 B,2 | x8 | %10
 (C2 G,2) x4 | x8 | x8 | x6 ||[M:3/4] x2 | B,B, B, x3 | E,2 x4 | x6 | E,2 x4 | B,B, B, x3 | %20
 E,2 x4 | x4 B,2 | x6 |] %23

